X:1
T:Zhejiang, 87.87 D
T:Zhejiang, 87.87 D
T:Joseph Lincoln Hall (1866-1930)
T:Public Domain Courtesy of the Cyber Hymnal™
C:Joseph Lincoln Hall (1866-1930)
Z:Public Domain
Z:Courtesy of the Cyber Hymnal™
%%score ( 1 2 ) ( 3 4 )
L:1/8
Q:1/4=94
M:3/4
K:Bb
V:1 treble 
V:2 treble 
V:3 bass 
V:4 bass 
V:1
 [B,D][CE] | [DF]3 [Fd] [Ec][Fd] | [Ec]2 [DB]2 [FB][FA] | [EG]3 [GB] [FA][EG] | [DF]4 [B,D][CE] | %5
 [DF]3 [Fd] [Ec][DB] | [EG]2 [EB]2 [FA][EG] | [DF]3 [Fd] [Ec][EF] | [DB]4 de | d3 z cGA | %10
 c2 [DB]2 [FB][FA] | G3 [EA] [GB][Gc] | [^Fd]4 de | d3 [Ec] [Ee][EA] | c2 [DB]2 AG | %15
 F3 [Fd] [Ec][EF] | B4 |] %17
V:2
 x2 | x6 | x6 | x6 | x6 | x6 | x6 | x6 | x6 | (EE E2) x3 | DD x4 | (EE E) x3 | x6 | (EE E) x3 | %14
 DD x4 | (DD D) x3 | (DE D2) |] %17
V:3
 [B,,F,][B,,F,] | [B,,B,]3 [B,,B,] [B,,B,][B,,B,] | [B,,B,]2 [B,,B,]2 [D,B,][D,B,] | %3
 [E,B,]3 [E,E] [E,E][E,B,] | [B,,B,]4 [B,,F,][B,,F,] | [B,,B,]3 [B,,B,] [B,,B,][B,,B,] | %6
 [E,B,]2 [E,G,]2 [E,B,][E,B,] | [F,B,]3 [F,B,] [F,A,][F,A,] | [B,,B,]4 z2 | %9
 ([F,A,][F,A,] [F,A,]2) z2 x | ([B,,F,][B,,F,] [B,,F,]2) [D,B,][D,B,] | %11
 ([E,B,][E,B,] [E,B,])[E,B,] [E,B,][E,G,] | [D,A,]4 z2 | %13
 ([F,A,][F,A,] [F,A,])[F,A,] [^F,A,][F,A,] | ([G,B,][G,B,] [G,B,]2) z2 | %15
 ([F,B,][F,B,] [F,B,])[F,B,] [F,A,][F,A,] | (B,G, F,2) |] %17
V:4
 x2 | x6 | x6 | x6 | x6 | x6 | x6 | x6 | x6 | x7 | x6 | x6 | x6 | x6 | x6 | x6 | B,,4 |] %17

